world_stage/static/flags/rect/sur.svg

<svg height="800" viewBox="0 0 1200 800" width="1200" xmlns="http://www.w3.org/2000/svg"><g transform="matrix(1.3333333 0 0 -1.3333333 0 800)"><path d="m0 0h900v600h-900z" fill="#377e3f"/><path d="m0 120h900v360h-900z" fill="#fff"/><path d="m0 180h900v240h-900z" fill="#b40a2d"/></g><path d="m0 0 70.534 51.246h-87.185l-26.942 82.918-26.941-82.918h-87.186l70.535-51.246-26.942-82.918 70.534 51.246 70.534-51.246z" fill="#ecc81d" transform="matrix(1.3333333 0 0 -1.3333333 658.12373 434.164)"/></svg>

<?xml version="1.0" encoding="UTF-8" standalone="no"?>
<!-- Created with Inkscape (http://www.inkscape.org/) -->

<svg
   version="1.1"
   id="svg1"
   width="1200"
   height="800"
   viewBox="0 0 1200 800"
   sodipodi:docname="sr.ai"
   xmlns:inkscape="http://www.inkscape.org/namespaces/inkscape"
   xmlns:sodipodi="http://sodipodi.sourceforge.net/DTD/sodipodi-0.dtd"
   xmlns="http://www.w3.org/2000/svg"
   xmlns:svg="http://www.w3.org/2000/svg">
  <defs
     id="defs1" />
  <sodipodi:namedview
     id="namedview1"
     pagecolor="#ffffff"
     bordercolor="#000000"
     borderopacity="0.25"
     inkscape:showpageshadow="2"
     inkscape:pageopacity="0.0"
     inkscape:pagecheckerboard="0"
     inkscape:deskcolor="#d1d1d1">
    <inkscape:page
       x="0"
       y="0"
       inkscape:label="1"
       id="page1"
       width="1200"
       height="800"
       margin="0"
       bleed="0" />
  </sodipodi:namedview>
  <g
     id="layer-MC0"
     inkscape:groupmode="layer"
     inkscape:label="Layer 1">
    <path
       id="path1"
       d="M 0,0 H 900 V 600 H 0 Z"
       style="fill:#377e3f;fill-opacity:1;fill-rule:nonzero;stroke:none"
       transform="matrix(1.3333333,0,0,-1.3333333,0,800)" />
    <path
       id="path2"
       d="M 0,120 H 900 V 480 H 0 Z"
       style="fill:#ffffff;fill-opacity:1;fill-rule:nonzero;stroke:none"
       transform="matrix(1.3333333,0,0,-1.3333333,0,800)" />
    <path
       id="path3"
       d="M 0,180 H 900 V 420 H 0 Z"
       style="fill:#b40a2d;fill-opacity:1;fill-rule:nonzero;stroke:none"
       transform="matrix(1.3333333,0,0,-1.3333333,0,800)" />
    <path
       id="path4"
       d="M 0,0 70.534,51.246 H -16.651 L -43.593,134.164 -70.534,51.246 H -157.72 L -87.185,0 l -26.942,-82.918 70.534,51.246 70.534,-51.246 z"
       style="fill:#ecc81d;fill-opacity:1;fill-rule:nonzero;stroke:none"
       transform="matrix(1.3333333,0,0,-1.3333333,658.12373,434.164)" />
  </g>
</svg>
